X:1
T:The Streets of London
M:4/4
L:1/4
K:C
 E/2 E E3/2 E| G G2 E/2D/2| C2 C/2- D3/2| E E3| A,/2 C3/2 C D| C C2 C/2C/2|\
 D2 D2| E4| E/2 E E3/2 G| G/2 G G/2- G2| C/2 C3/2 C E| E/2 F3/2 E2|\
 z A, C/2 C3/2| C/2 C/2- C2 G,/2 G,/2| G, G,/2 B,/2- B,2| C4-| C3 F,|\
 F2 F/2 F3/2| E E2 G| G2- G- F| E4| z D D D/2 D/2-| D A,/2A,/2 C/2 B,/2- B,|\
 G,4-| G,4| E/2 E E3/2 G| G G/2 E/2- E D| C C/2 C/2- C D| E F/2 E/2- E G,|\
 z2 A,/2 C3/2| C C2- C/2C/2| G,/2 G,3/2 A, B,| C4-| C4|
